X:1
T:Dostoino est
T:Dostoino est
T:P. I. Tsjaikovski
T:TH 78, nr. 5
C:P. I. Tsjaikovski
%%score [ 1 2 3 ( 4 5 ) ]
L:1/8
Q:1/4=60
M:3/4
K:F
V:1 treble nm="Sopran"
V:2 treble nm="Alt"
V:3 treble-8 nm="Tenor"
V:4 bass nm="Bass"
V:5 bass 
V:1
!p! F2 | !>!F3 G G2 |!<(! G2 B2 A2!<)! |!>(! A3 G G2!>)! |!<(! A2 B2 B2!<)! | B2 d2 c2 | %6
w: Dos-|toj- no est|ja- ko vo-|is- ti- nu|bla- zji- ti|Tja, Bo- go-|
!>(! B3 A A2!>)! |!mf! c2!<(! e2 f2!<)! |!>(! c3 B A2!>)! |!<(! c3/2 c/ e2 f2!<)! | %10
w: ro- di- tsu.|Pri- sno- bla-|zjen- nu- ju,|i Pre- ne- po-|
!>(! c3 B A!>)!!f! f | e3/2 d/ (dc) (BA) | (Bd c3/2) B/ A G | (Fc) (BA) G2- | G4 A2 | %15
w: rotsj- nu- ju, i|Ma- ter Bo- * ga _|na- * * sje- go, i|Ma- * ter _ Bo-|* ga|
!>(! A3 A!>)!!p! A2- | A2 !fermata!z2!ff! e2 | f2 e d d e | A6- | A2 d2 e2 | f2 f f e d | %21
w: na- sje- go.|_ Tsjest-|nej- sju- ju He- ru-|vim,|_ i Slav-|nej- sju- ju bez srav-|
 d e A2 d e | A6- | A !fermata!z!p! F2 F2 | !>!F3 G G2 |!<(! G3/2 G/!<)! B2 A2 |!>(! A3 G!>)! G2 | %27
w: ne- ni- ja Se- ra-|fim.|_ Bez ist-|le- ni- ja|Bo- ga Slo- va|rozjd- sju- ju,|
!<(! A2 B2 B2!<)! | (B2 d2) c2 |!>(! B3 A A2!>)! |!mf! c2!<(! e2 f2!<)! |!>(! (c3 B) A2!>)! | %32
w: su- stsju- ju|Bo- * go-|ro- di- tsu,|Tja ve- li-|tsja- * em,|
!<(! c2 e2 f2!<)! |!>(! c3 B A2!>)! | z!f! c (BA) (GF) | F A (Bc) (d>c) |!>(! c6 | c4!>)! z2 | %38
w: Tja- ve- li-|tsja- * em,|Tja ve- * li- *|tsja- em, ve- * li- *|tsja-|em,|
!pp! F2 F2 B2 |!<(! (A4 FG!<)! |!>(! A6)!>)! |!pp! !fermata!A6 || z2 z2!f! e2 | f6- | f2 z2 z2 | %45
w: Tja ve- li-|tsja- * *||em.|I|vseh,|_|
!ff! (g3 f e2) | f6- | f2 z2 |] %48
w: I _ _|vsja.|_|
V:2
!p! D2 | !>!D3 E E2 |!<(! E2 F2 F2!<)! |!>(! F3 E E2!>)! |!<(! F2 F2 F2!<)! | F2 F2 F2 | %6
w: Dos-|toj- no est|ja- ko vo-|is- ti- nu|bla- zji- ti|Tja, Bo- go-|
!>(! B,3 F F2!>)! |!mf! F2!<(! B2 A2!<)! |!>(! G3 G C2!>)! |!<(! F3/2 F/ c2 c2!<)! | %10
w: ro- di- tsu.|Pri- sno- bla-|zjen- nu- ju,|i Pre- ne- po-|
!>(! G3 G C!>)!!f! c | c3/2 B/ (BA) (G^F) | G2 G2 C2- | C E D C B,2- | B,4 A,2 | %15
w: rotsj- nu- ju, i|Ma- ter Bo- * ga _|na- sje- go,|_ i Ma- ter Bo-|* ga|
!>(! E3 E!>)!!p! E2- | E2 !fermata!z2!ff! A2 | A2 A A B B | D6- | D2 A2 A2 | A2 A A A A | %21
w: na- sje- go.|_ Tsjest-|nej- sju- ju He- ru-|vim,|_ i Slav-|nej- sju- ju bez srav-|
 B B D2 B B | D6- | D !fermata!z!p! D2 D2 | !>!D3 E E2 |!<(! E3/2 E/!<)! F2 F2 |!>(! F3 E!>)! E2 | %27
w: ne- ni- ja Se- ra-|fim.|_ Bez ist-|le- ni- ja|Bo- ga Slo- va|rozjd- sju- ju,|
!<(! F2 F2 F2!<)! | F4 C2 |!>(! F3 F F2!>)! |!mf! F2!<(! B2 A2!<)! |!>(! G4 C2!>)! | %32
w: su- stsju- ju|Bo- go-|ro- di- tsu,|Tja ve- li-|tsja- em,|
!<(! F2 c2 c2!<)! |!>(! G4 C2!>)! | z!f! E (DC) (B,A,) | A, E (DC) (B,>C) |!>(! C6 | F4!>)! z2 | %38
w: Tja- ve- li-|tsja- em,|Tja ve- * li- *|tsja- em, ve- * li- *|tsja-|em,|
!pp! D2 D2 G2 |!<(! (E4 D2!<)! |!>(! E6)!>)! |!pp! !fermata!E6 || z2 z2!f! A2 | A6- | A2 z2 z2 | %45
w: Tja ve- li-|tsja- *||em.|I|vseh,|_|
!ff! c4- cB | A6- | A2 z2 |] %48
w: I _ _|vsja.|_|
V:3
!p! A2 | !>!A3 c c2 |!<(! c2 d2 c2!<)! |!>(! c3 c c2!>)! |!<(! c2 B2 B2!<)! | B2 B2 c2 | %6
w: Dos-|toj- no est|ja- ko vo-|is- ti- nu|bla- zji- ti|Tja, Bo- go-|
!>(! f3 c c2!>)! | z6 |!mf! c2!<(! e2 f2!<)! |!>(! c3 B A2!>)! |!<(! c3/2 c/ e2 f2!<)! | %11
w: ro- di- tsu.||Pri- sno bla-|zjen- nu- ju,|i Pre- ne- po-|
!f! f3/2 f/ (fe) d d | d B c d e2 | f4- f e | d4 e2 |!>(! A3 A!>)!!p! A2- | A2 !fermata!z2!ff! e2 | %17
w: rotsj- nu- ju, i Ma- ter|Bo- ga na- sje- go,|Ma- * ter|Bo- ga|na- sje- go.|_ Tsjest-|
 d2 e f g2- | g2 (fe) f2- | f2 f2 e2 | d2 d d e f | g2 g f g2- | g2 (fe) f2- | %23
w: nej- sju- ju He-|* ru- * vim,|_ i Slav-|nej- sju- ju bez srav-|ne- ni- ja Se-|* ra- * fim.|
 f !fermata!z!p! A2 A2 | !>!A3 c c2 |!<(! c3/2 c/!<)! d2 c2 |!>(! c3 c!>)! c2 |!<(! c2 B2 B2!<)! | %28
w: _ Bez ist-|le- ni- ja|Bo- ga Slo- va|rozjd- sju- ju,|su- stsju- ju|
 B4 f2 |!>(! B3 c c2!>)! | z6 |!mf! c2!<(! e2 f2!<)! |!>(! c3 B A2!>)! |!<(! c2 e2 f2!<)! | %34
w: Bo- go-|ro- di- tsu,||Tja ve- li-|tsja- * em,|Tja ve- li-|
!f! f6- | f6- |!>(! f6 | c4!>)! z2 |!pp! A2 A2 d2 |!<(! (^c4 d2!<)! |!>(! ^c6)!>)! | %41
w: tsja|_||em,|Tja ve- li-|tsja- *||
!pp! !fermata!^c6 || z2 z2!f! ^c2 | d6- | d2 z2 z2 |!ff! (ef ga c2) | c6- | c2 z2 |] %48
w: em.|I|vseh,|_|I _ _ _ _|vsja.|_|
V:4
!p! D,2 | !>!D,3 C, C,2 |!<(! C,2 B,,2 F,2!<)! |!>(! F,3 C, C,2!>)! |!<(! F,2 D,2 D,2!<)! | %5
 D,2 B,,2 A,,2 |!>(! D,3 F, F,2!>)! |!mf! A,2!<(! G,2 F,2!<)! |!>(! E,3 C, F,2!>)! | %9
!<(! A,3/2 A,/ G,2 F,2!<)! |!>(! E,3 C, F,!>)!!f! A, | A,3/2 B,/ (B,C) D2 | G, F, (E,D,) (C,B,,) | %13
 A,,2 (B,,C,) (D,2- | D,F, E,D,) ^C,2 |!>(! ^C,3 C,!>)!!p! C,2- | C,2 !fermata!z2!ff! A,2 | %17
 A,2 D D D D | A,6- | A,2 A,2 A,2 | A,2 A, A, D D | D D A,2 D D | A,6- | A, !fermata!z!p! D,2 D,2 | %24
 !>!D,3 C, C,2 |!<(! C,3/2 C,/!<)! B,,2 F,2 |!>(! F,3 C,!>)! C,2 |!<(! F,2 D,2 D,2!<)! | %28
 (D,2 B,,2) A,,2 |!>(! D,3 F, F,2!>)! |!mf! A,2!<(! G,2 F,2!<)! |!>(! (E,2 C,2) F,2!>)! | %32
!<(! A,2 G,2 F,2!<)! |!>(! (E,2 C,2) F,2!>)! | z!f! A,, (B,,C,) (D,>C,) | C, C (B,A,) (G,>A,) | %36
!>(! A,6 | A,4!>)! z2 |!pp! D,2 D,2 G,,2 |!<(! (A,,4 B,,2!<)! |!>(! A,,6)!>)! | %41
!pp! !fermata!A,,6 || z2 z2!f! A,2 | D,6- | D,2 z2 z2 |!ff! (C,D, E,F, G,2) | F,6- | F,2 z2 |] %48
V:5
 D,2 | !>!D,3 C, C,2 | C,2 B,,2 F,2 | F,3 C, C,2 | F,2 D,2 D,2 | D,2 B,,2 A,,2 | D,3 F, F,2 | %7
w: Dos-|toj- no est|ja- ko vo-|is- ti- nu|bla- zji- ti|Tja, Bo- go-|ro- di- tsu.|
 A,2 G,2 F,2 | E,3 C, F,2 | A,3/2 A,/ G,2 F,2 | E,3 C, F, A, | A,3/2 B,/ (B,C) D2 | %12
w: Pri- sno- bla-|zjen- nu- ju,|i Pre- ne- po-|rotsj- nu- ju, i|Ma- ter Bo- * ga|
 G, F, (E,D,) (C,B,,) | A,,2 ((B,,C,)) (D,2- | D,F, E,D,) ^C,2 | ^C,3 C, C,2- | C,2 x2 ^C,2 | %17
w: na- sje- go, _ i _|Ma- ter _ Bo-|* * * * ga|na- sje- go.|_ Tsjest-|
 D,2 A, A, G, G, | D,6- | D,2 D,2 ^C,2 | D,2 D, D, A, A, | G, G, D,2 G, G, | D,6- | D, x D,2 D,2 | %24
w: nej- sju- ju He- ru-|vim,|_ i Slav-|nej- sju- ju bez srav-|ne- ni- ja Se- ra-|fim.|_ Bez ist-|
 !>!D,3 C, C,2 | C,3/2 C,/ B,,2 F,2 | F,3 C, C,2 | F,2 D,2 D,2 | (D,2 B,,2) A,,2 | D,3 F, F,2 | %30
w: le- ni- ja|Bo- ga Slo- va|rozjd- sju- ju,|su- stsju- ju|Bo- * go-|ro- di- tsu,|
 A,2 G,2 F,2 | (E,2 C,2) F,2 | A,2 G,2 F,2 | (E,2 C,2) F,2 | x A,, (B,,C,) (D,>C,) | %35
w: Tja ve- li-|tsja- * em,|Tja ve- li-|tsja- * em,|Tja ve- * li- *|
 C, C (B,A,) (G,>A,) | A,6 | A,4 x2 | D,2 D,2 G,,2 | (A,,4 B,,2 | A,,6) | A,,6 || x4 A,2 | D,6- | %44
w: tsja- em, ve- * li- *|tsja-|em,|Tja ve- li-|tsja- *||em.|I|vseh,|
 D,2 x4 | (C,D, E,F, G,2) | F,6- | F,2 x2 |] %48
w: _|I _ _ _ _|vsja.|_|

